!!!OTL: 681. Anruf der Natur zur Liebesklage.
!!!ARE: Europa, Mitteleuropa, Deutschland, Hessen, Odenwald, Gross Biberau
!!!SCT: E0681
!!!TXL: @@DE
!!!YEM: Copyright 1995, estate of Helmut Schaffrath.
**kern	**text
*ICvox	*
*M6/8	*
*k[b-]	*
*F:	*
=1	=1
!LO:TX:a:t=Aus Groß Biberau (am Fuß des Odenwaldes) 1844 von Fr. Erk aufgenommen.	!
{4f	Kli-
8g	-pfen,
16aL	Fel-
16gJ	.
8f	-ſen,
8r	.
=2	=2
4a	ho-
8b-/	-he
8cc	Ber-
8a	-ge,
8r}	.
=3	=3
{4cc	finſt-
8ff	-re
8ddL	Wel-
8ccJ	.
8b-	-len,
=4	=4
4a	tie-
8g	-fes
4f	Thal.
8r}	.
=5	=5
{4f	Wil-
8g	-de
16aL	Thie-
16gJ	.
8f	-re,
8r	.
=6	=6
4a	Waſ-
8b-/	-ſer-
8cc	-wel-
8a	-len,
8r}	.
=7	=7
{4cc	Vö-
8ff	-gel
8ddL	lie-
8ccJ	.
8b-	-fert
=8	=8
4a	eu-
8g	-ren
4f	Schall,
8r}	.
=9	=9
{4e	hel-
8f	-fet
4g	mir
16ccL	den
16ddJ	.
=10	=10
8ccL	Schmerʒ
8b-J	.
8a	be-
8a	-wei-
8g	-nen,
8r}	.
=11	=11
{4e	ſe-
8f	-het
4g	doch
16ccL	den
16ddJ	.
=12	=12
8ccL	Jam-
8b-J	.
8a	-mer
8aL	an;
8gJ	.
8r}	.
=13	=13
{4f	hel-
8g	-ſet
16aL	Fel-
16gJ	.
8f	-ſen,
8r	.
=14	=14
4a	hel-
8b-	-fet
8ccL	Stei-
8aJ	-ne,
8r}	.
=15	=15
{4cc	weil
8ff	ſonſt
8ddL	nichts
8ccJ	.
8b-	mehr
=16	=16
4a	hel-
8g	-fen
4f	kann.
8r}	.
==	==
!!!AGN: Liebes - Lied, Leid, Klage
!!!ONB: ESAC (Essen Associative Code) Database: ERK2
!!!AMT: compound duple
!!!AIN: vox
!!!EED: Helmut Schaffrath
!!!EEV: 1.0
!!!GTL: Liebeslieder [Neuere (aus dem 18. bis 19. Jahrh.) - Liebesleid] 678-740
!!!URL-scan: https://rosdok.uni-rostock.de/mcrviewer/recordIdentifier/rosdok_ppn745177662/iview2/phys_0483.iview2?x=58.753637887782816&y=2101.8666160898283&scale=0.7029437510502773&rotation=0&layout=singlePageLayout
!!!ENC: Anna Maria Matuszewska
!!!EEV: 2024/12/16
*-	*-
